svgs/regular/underline.svg

<svg xmlns="http://www.w3.org/2000/svg" viewBox="0 0 448 512"><!--! Font Awesome Pro 6.0.0-alpha3 by @fontawesome - https://fontawesome.com License - https://fontawesome.com/license (Commercial License) --><path d="M40 48H64v192c0 88.22 71.78 160 160 160s160-71.78 160-160v-192h24c13.25 0 24-10.75 24-24S421.3 0 408 0h-96C298.8 0 288 10.75 288 24s10.75 24 24 24h24v192c0 61.75-50.25 112-112 112S112 301.8 112 240v-192h24C149.3 48 160 37.25 160 24S149.3 0 136 0h-96C26.75 0 16 10.75 16 24S26.75 48 40 48zM424 464H24C10.75 464 0 474.8 0 488S10.75 512 24 512h400c13.25 0 24-10.75 24-24S437.3 464 424 464z"/></svg>

<svg xmlns="http://www.w3.org/2000/svg" viewBox="0 0 448 512"><!-- Font Awesome Pro 6.0.0-alpha2 by @fontawesome - https://fontawesome.com License - https://fontawesome.com/license (Commercial License) --><path d="M40 48H64V240C64 328.219 135.781 400 224 400S384 328.219 384 240V48H408C421.25 48 432 37.25 432 24S421.25 0 408 0H312C298.75 0 288 10.75 288 24S298.75 48 312 48H336V240C336 301.75 285.75 352 224 352S112 301.75 112 240V48H136C149.25 48 160 37.25 160 24S149.25 0 136 0H40C26.75 0 16 10.75 16 24S26.75 48 40 48ZM424 464H24C10.75 464 0 474.75 0 488S10.75 512 24 512H424C437.25 512 448 501.25 448 488S437.25 464 424 464Z"/></svg>
